packages/foundations/assets/icons/functional/images/transportation/taxi_12_inverted.svg

<svg width="12" height="12" viewBox="0 0 12 12" fill="none" xmlns="http://www.w3.org/2000/svg">
<g clip-path="url(#clip0_2214_6778)">
<path fill-rule="evenodd" clip-rule="evenodd" d="M7.79995 1.5V2.4036L8.22324 2.40404C8.71113 2.44416 9.16961 2.81667 9.29389 3.24606C9.37674 3.53232 9.53936 4.2503 9.78175 5.4H10.8V6.60202L10.137 6.6C10.0469 7.49564 9.98693 8.02144 9.95693 8.17739C9.91192 8.41132 9.78175 8.71727 9.59995 8.89556V10.5H8.09995V9.4446C7.39995 9.5482 6.69995 9.6 5.99995 9.6C5.29995 9.6 4.59995 9.5482 3.89995 9.4446V10.5H2.39995V8.89556C2.2619 8.76201 2.13332 8.52577 2.06995 8.29284C2.02771 8.13755 1.95851 7.57327 1.86235 6.6L1.19995 6.60202V5.4H2.21755L2.67425 3.34102C2.81705 2.85798 3.20362 2.49474 3.6802 2.41595C3.782 2.40089 3.95525 2.39677 4.19995 2.4036V1.5H7.79995ZM7.19995 6.69H4.79995V7.71H7.19995V6.69ZM8.99995 6.69H7.79995V7.71H8.99995V6.69ZM4.19995 6.69H2.99995V7.71H4.19995V6.69ZM8.3482 3.42H3.65171L3.26575 5.4H8.73355L8.3482 3.42Z" fill="#1A1C1F"/>
</g>
<defs>
<clipPath id="clip0_2214_6778">
<rect width="12" height="12" fill="white"/>
</clipPath>
</defs>
</svg>

<svg xmlns="http://www.w3.org/2000/svg" width="12" height="12" fill="none"><g clip-path="url(#a)"><path fill="#1A1C1F" fill-rule="evenodd" d="M7.8 1.5v.904h.423c.488.04.947.413 1.07.842q.125.429.489 2.154H10.8v1.202l-.663-.002q-.135 1.343-.18 1.577c-.045.234-.175.54-.357.719V10.5H8.1V9.445a14.3 14.3 0 0 1-4.2 0V10.5H2.4V8.896a1.4 1.4 0 0 1-.33-.603Q2.007 8.06 1.862 6.6l-.662.002V5.4h1.018l.456-2.059c.143-.483.53-.846 1.006-.925a3.4 3.4 0 0 1 .52-.012V1.5zm-.6 5.19H4.8v1.02h2.4zm1.8 0H7.8v1.02H9zm-4.8 0H3v1.02h1.2zm4.148-3.27H3.652L3.266 5.4h5.468z" clip-rule="evenodd"/></g><defs><clipPath id="a"><path fill="#fff" d="M0 0h12v12H0z"/></clipPath></defs></svg>
